src/actions/24/im-user-busy.svg

<?xml version="1.0" encoding="UTF-8" standalone="no"?>
<svg
   viewBox="0 0 24 24"
   id="svg2"
   version="1.1"
   inkscape:version="1.2.2 (b0a8486541, 2022-12-01)"
   sodipodi:docname="im-user-busy.svg"
   xmlns:inkscape="http://www.inkscape.org/namespaces/inkscape"
   xmlns:sodipodi="http://sodipodi.sourceforge.net/DTD/sodipodi-0.dtd"
   xmlns="http://www.w3.org/2000/svg"
   xmlns:svg="http://www.w3.org/2000/svg"
   xmlns:rdf="http://www.w3.org/1999/02/22-rdf-syntax-ns#"
   xmlns:cc="http://creativecommons.org/ns#"
   xmlns:dc="http://purl.org/dc/elements/1.1/">
  <metadata
     id="metadata18">
    <rdf:RDF>
      <cc:Work
         rdf:about="">
        <dc:format>image/svg+xml</dc:format>
        <dc:type
           rdf:resource="http://purl.org/dc/dcmitype/StillImage" />
      </cc:Work>
    </rdf:RDF>
  </metadata>
  <defs
     id="defs16">
    <inkscape:path-effect
       effect="powerclip"
       id="path-effect564"
       is_visible="true"
       lpeversion="1"
       inverse="true"
       flatten="false"
       hide_clip="false"
       message="Use fill-rule evenodd on &lt;b&gt;fill and stroke&lt;/b&gt; dialog if no flatten result after convert clip to paths." />
    <clipPath
       clipPathUnits="userSpaceOnUse"
       id="clipPath560">
      <path
         style="display:none;fill:#ffffff;fill-opacity:1;stroke:none;stroke-width:2;stroke-miterlimit:4;stroke-dasharray:none;stroke-dashoffset:0;stroke-opacity:1"
         d="m 16,14 v 3 h 1 1 v -1 h -1 v -2 z"
         id="path562" />
      <path
         id="lpe_path-effect564"
         style="fill:#ffffff;fill-opacity:1;stroke:none;stroke-width:2;stroke-miterlimit:4;stroke-dasharray:none;stroke-dashoffset:0;stroke-opacity:1"
         class="powerclip"
         d="M -0.9277344,-1 H 25 V 25 H -0.9277344 Z M 16,14 v 3 h 1 1 v -1 h -1 v -2 z" />
    </clipPath>
  </defs>
  <sodipodi:namedview
     pagecolor="#ffffff"
     bordercolor="#666666"
     borderopacity="1"
     objecttolerance="10"
     gridtolerance="10"
     guidetolerance="10"
     inkscape:pageopacity="0"
     inkscape:pageshadow="2"
     inkscape:window-width="956"
     inkscape:window-height="1015"
     id="namedview14"
     showgrid="true"
     inkscape:zoom="27.812867"
     inkscape:cx="13.411059"
     inkscape:cy="7.5324849"
     inkscape:window-x="0"
     inkscape:window-y="0"
     inkscape:window-maximized="0"
     inkscape:current-layer="svg2"
     inkscape:showpageshadow="2"
     inkscape:pagecheckerboard="0"
     inkscape:deskcolor="#d1d1d1">
    <inkscape:grid
       type="xygrid"
       id="grid4155" />
  </sodipodi:namedview>
  <path
     style="fill:#d48787"
     d="m 12,4 a 3.99999,4.00003 0 0 0 -4,4 3.99999,4.00003 0 0 0 4,4 3.99999,4.00003 0 0 0 4,-4 3.99999,4.00003 0 0 0 -4,-4 z m 0,1 a 3,3.00003 0 0 1 3,3 3,3.00003 0 0 1 -3,3 3,3.00003 0 0 1 -3,-3 3,3.00003 0 0 1 3,-3 z m 0,8 A 7.99995,8.00003 0 0 0 4.0722656,20 H 5.0800781 A 6.99996,7.00003 0 0 1 12,14 a 6.99996,7.00003 0 0 1 1,0.08008 V 13.070312 A 7.99995,8.00003 0 0 0 12,13 Z m 4.5,0 A 3.5,3.5 0 0 0 13,16.5 3.5,3.5 0 0 0 16.5,20 3.5,3.5 0 0 0 20,16.5 3.5,3.5 0 0 0 16.5,13 Z M 16,14 h 1 v 2 h 1 v 1 h -1 -1 v -1 z"
     id="path8"
     clip-path="url(#clipPath560)"
     inkscape:path-effect="#path-effect564"
     inkscape:original-d="M 12 4 A 3.99999 4.00003 0 0 0 8 8 A 3.99999 4.00003 0 0 0 12 12 A 3.99999 4.00003 0 0 0 16 8 A 3.99999 4.00003 0 0 0 12 4 z M 12 5 A 3 3.00003 0 0 1 15 8 A 3 3.00003 0 0 1 12 11 A 3 3.00003 0 0 1 9 8 A 3 3.00003 0 0 1 12 5 z M 12 13 A 7.99995 8.00003 0 0 0 4.0722656 20 L 5.0800781 20 A 6.99996 7.00003 0 0 1 12 14 A 6.99996 7.00003 0 0 1 13 14.080078 L 13 13.070312 A 7.99995 8.00003 0 0 0 12 13 z M 16.5 13 A 3.5 3.5 0 0 0 13 16.5 A 3.5 3.5 0 0 0 16.5 20 A 3.5 3.5 0 0 0 20 16.5 A 3.5 3.5 0 0 0 16.5 13 z M 16 14 L 17 14 L 17 16 L 18 16 L 18 17 L 17 17 L 16 17 L 16 16 L 16 14 z " />
</svg>

<svg xmlns="http://www.w3.org/2000/svg" viewBox="0 0 24 24">
    <path d="M12 4a4 4 0 0 0-4 4 4 4 0 0 0 4 4 4 4 0 0 0 4-4 4 4 0 0 0-4-4zm0 1a3 3 0 0 1 3 3 3 3 0 0 1-3 3 3 3 0 0 1-3-3 3 3 0 0 1 3-3zm0 8a8 8 0 0 0-7.928 7H5.08A7 7 0 0 1 12 14a7 7 0 0 1 1 .08v-1.01a8 8 0 0 0-1-.07zm4.5 0a3.5 3.5 0 0 0-3.5 3.5 3.5 3.5 0 0 0 3.5 3.5 3.5 3.5 0 0 0 3.5-3.5 3.5 3.5 0 0 0-3.5-3.5zm-.5 1h1v2h1v1h-2v-3z" style="fill:#ec9b97"/>
    <path d="M16 14v3h2v-1h-1v-2h-1z" style="fill:#000;fill-opacity:1;stroke:none;stroke-width:2;stroke-miterlimit:4;stroke-dasharray:none;stroke-dashoffset:0;stroke-opacity:1"/>
</svg>
